;FLAVOR:Marlin
;TIME:12247
;Filament used: 11.1032m
;Layer height: 0.2
;MINX:51
;MINY:30.5
;MINZ:0.2
;MAXX:159
;MAXY:179.5
;MAXZ:7
;Generated with Cura_SteamEngine 4.4.0
M82 ;absolute extrusion mode
G21 ;metric values
G90 ;absolute positioning
M82 ;set extruder to absolute mode
M107 ;start with the fan off
G28 X0 Y0 ;move X/Y to min endstops
G28 Z0 ;move Z to min endstops
G92 E0 ;zero the extruded length
G1 F200 E3 ;extrude 3mm of feed stock
G92 E0 ;zero the extruded length again
M420 S1 ;enable z leveling
G1 F9000
M104 S200.0
M140 S60
M109 S200.0
M190 S60
G1 X60.0 E9.0 F1000.0 ; intro line
G1 X105.0 E21.5 F1000.0 ; intro line
G92 E0.0 ; reset extruder distance position
;Put printing message on LCD screen
M117 Printing...
G92 E0
G92 E0
G1 F3900 E-6
;LAYER_COUNT:35
;LAYER:0
M106 S255
G1 F600 Z0.275
G0 F3600 X52.027 Y33.166 Z0.275
;TYPE:SKIRT
G1 F600 Z0.2
G1 F3900 E0
G1 F1950 X52.445 Y32.614 E0.02303
G1 X52.924 Y32.114 E0.04606
G1 X53.458 Y31.673 E0.06909
G1 X54.039 Y31.296 E0.09213
G1 X54.659 Y30.988 E0.11516
G1 X55.311 Y30.754 E0.1382
G1 X55.985 Y30.597 E0.16121
G1 X56.841 Y30.511 E0.18983
G1 X57.162 Y30.502 E0.20051
G1 X57.33 Y30.5 E0.2061
G1 X152.293 Y30.5 E3.36458
G1 X152.379 Y30.501 E3.36744
G1 X153.077 Y30.511 E3.39066
G1 X153.768 Y30.56 E3.4137
G1 X154.448 Y30.69 E3.43672
G1 X155.109 Y30.896 E3.45975
G1 X155.742 Y31.178 E3.4828
G1 X156.338 Y31.53 E3.50582
G1 X156.889 Y31.949 E3.52885
G1 X157.389 Y32.429 E3.5519
G1 X157.83 Y32.963 E3.57493
G1 X158.207 Y33.544 E3.59797
G1 X158.514 Y34.165 E3.62101
G1 X158.747 Y34.817 E3.64404
G1 X158.904 Y35.491 E3.66706
G1 X158.989 Y36.341 E3.69547
G1 X158.998 Y36.661 E3.70611
G1 X159 Y36.83 E3.71174
G1 X159 Y172.838 E8.23538
G1 X158.991 Y173.565 E8.25956
G1 X158.942 Y174.256 E8.2826
G1 X158.814 Y174.937 E8.30565
G1 X158.609 Y175.598 E8.32867
G1 X158.329 Y176.231 E8.35169
G1 X157.977 Y176.828 E8.37474
G1 X157.56 Y177.381 E8.39778
G1 X157.081 Y177.881 E8.42081
G1 X156.548 Y178.323 E8.44384
G1 X155.967 Y178.701 E8.46689
G1 X155.347 Y179.009 E8.48992
G1 X154.696 Y179.244 E8.51294
G1 X154.021 Y179.402 E8.53599
G1 X153.159 Y179.489 E8.56481
G1 X152.838 Y179.498 E8.57549
G1 X152.67 Y179.5 E8.58108
G1 X57.63 Y179.5 E11.74212
G1 X56.932 Y179.491 E11.76534
G1 X56.241 Y179.442 E11.78838
G1 X55.56 Y179.313 E11.81143
G1 X54.899 Y179.108 E11.83445
G1 X54.266 Y178.827 E11.85748
G1 X53.669 Y178.476 E11.88052
G1 X53.117 Y178.058 E11.90355
G1 X52.617 Y177.579 E11.92658
G1 X52.175 Y177.045 E11.94963
G1 X51.798 Y176.465 E11.97264
G1 X51.49 Y175.844 E11.9957
G1 X51.255 Y175.193 E12.01872
G1 X51.098 Y174.518 E12.04177
G1 X51.011 Y173.653 E12.07068
G1 X51.002 Y173.32 E12.08176
G1 X51 Y173.158 E12.08715
G1 X51 Y37.174 E16.61
G1 X51.001 Y37.093 E16.61269
G1 X51.01 Y36.428 E16.63481
G1 X51.059 Y35.737 E16.65785
G1 X51.187 Y35.057 E16.68087
G1 X51.394 Y34.395 E16.70394
G1 X51.675 Y33.762 E16.72697
G1 X52.027 Y33.166 E16.74999
G0 F3600 X52.423 Y33.295
G1 F1950 X52.839 Y32.771 E16.77224
G1 X53.314 Y32.301 E16.79447
G1 X53.843 Y31.89 E16.81675
G1 X54.416 Y31.545 E16.839
G1 X55.027 Y31.272 E16.86126
G1 X55.665 Y31.073 E16.88348
G1 X56.323 Y30.951 E16.90574
G1 X56.852 Y30.911 E16.92339
G1 X57.173 Y30.902 E16.93407
G1 X57.33 Y30.9 E16.93929
G1 X152.293 Y30.9 E20.09777
G1 X152.373 Y30.901 E20.10043
G1 X153.071 Y30.911 E20.12365
G1 X153.738 Y30.96 E20.14589
G1 X154.395 Y31.089 E20.16816
G1 X155.031 Y31.295 E20.1904
G1 X155.639 Y31.576 E20.21268
G1 X156.208 Y31.926 E20.2349
G1 X156.732 Y32.343 E20.25717
G1 X157.202 Y32.819 E20.27942
G1 X157.612 Y33.347 E20.30165
G1 X157.957 Y33.921 E20.32393
G1 X158.23 Y34.532 E20.34618
G1 X158.428 Y35.171 E20.36843
G1 X158.549 Y35.829 E20.39069
G1 X158.589 Y36.353 E20.40817
G1 X158.598 Y36.673 E20.41881
G1 X158.6 Y36.83 E20.42404
G1 X158.6 Y172.833 E24.94751
G1 X158.591 Y173.56 E24.9717
G1 X158.542 Y174.228 E24.99397
G1 X158.415 Y174.884 E25.0162
G1 X158.21 Y175.521 E25.03845
G1 X157.931 Y176.129 E25.0607
G1 X157.581 Y176.699 E25.08295
G1 X157.165 Y177.224 E25.10523
G1 X156.69 Y177.695 E25.12748
G1 X156.163 Y178.106 E25.14971
G1 X155.59 Y178.452 E25.17197
G1 X154.98 Y178.726 E25.19421
G1 X154.341 Y178.926 E25.21648
G1 X153.683 Y179.048 E25.23874
G1 X153.148 Y179.089 E25.25659
G1 X152.827 Y179.098 E25.26727
G1 X152.67 Y179.1 E25.27249
G1 X57.635 Y179.1 E28.43337
G1 X56.937 Y179.091 E28.45658
G1 X56.27 Y179.042 E28.47883
G1 X55.613 Y178.914 E28.50109
G1 X54.976 Y178.709 E28.52335
G1 X54.368 Y178.429 E28.54561
G1 X53.798 Y178.079 E28.56786
G1 X53.274 Y177.663 E28.59011
G1 X52.803 Y177.188 E28.61236
G1 X52.392 Y176.66 E28.63461
G1 X52.047 Y176.087 E28.65686
G1 X51.773 Y175.477 E28.6791
G1 X51.573 Y174.838 E28.70137
G1 X51.452 Y174.18 E28.72362
G1 X51.411 Y173.642 E28.74157
G1 X51.402 Y173.309 E28.75265
G1 X51.4 Y173.158 E28.75767
G1 X51.4 Y37.174 E33.28052
G1 X51.401 Y37.098 E33.28305
G1 X51.41 Y36.433 E33.30517
G1 X51.459 Y35.766 E33.32741
G1 X51.587 Y35.109 E33.34967
G1 X51.792 Y34.473 E33.3719
G1 X52.072 Y33.865 E33.39416
G1 X52.423 Y33.295 E33.41643
G0 F3600 X52.819 Y33.429
G1 F1950 X53.232 Y32.935 E33.43784
G1 X53.703 Y32.495 E33.45928
G1 X54.226 Y32.117 E33.48074
G1 X54.79 Y31.806 E33.50216
G1 X55.389 Y31.568 E33.5236
G1 X56.013 Y31.405 E33.54505
G1 X56.863 Y31.311 E33.5735
G1 X57.184 Y31.302 E33.58418
G1 X57.33 Y31.3 E33.58903
G1 X152.293 Y31.3 E36.74751
G1 X152.367 Y31.301 E36.74998
G1 X153.065 Y31.311 E36.77319
G1 X153.708 Y31.36 E36.79464
G1 X154.34 Y31.488 E36.81609
G1 X154.951 Y31.694 E36.83754
G1 X155.532 Y31.973 E36.85897
G1 X156.074 Y32.322 E36.88041
G1 X156.568 Y32.736 E36.90185
G1 X157.008 Y33.208 E36.92331
G1 X157.386 Y33.73 E36.94475
G1 X157.696 Y34.295 E36.96618
G1 X157.934 Y34.894 E36.98762
G1 X158.096 Y35.518 E37.00906
G1 X158.189 Y36.364 E37.03737
G1 X158.198 Y36.684 E37.04802
G1 X158.2 Y36.83 E37.05288
G1 X158.2 Y172.828 E41.57619
G1 X158.191 Y173.555 E41.60037
G1 X158.143 Y174.198 E41.62181
G1 X158.016 Y174.83 E41.64326
G1 X157.811 Y175.442 E41.66472
G1 X157.533 Y176.023 E41.68614
G1 X157.185 Y176.566 E41.7076
G1 X156.772 Y177.061 E41.72904
G1 X156.301 Y177.501 E41.75047
G1 X155.779 Y177.88 E41.77193
G1 X155.215 Y178.191 E41.79335
G1 X154.616 Y178.43 E41.8148
G1 X153.993 Y178.594 E41.83623
G1 X153.137 Y178.689 E41.86487
G1 X152.816 Y178.698 E41.87555
G1 X152.67 Y178.7 E41.88041
G1 X57.64 Y178.7 E45.04112
G1 X56.942 Y178.691 E45.06434
G1 X56.299 Y178.642 E45.08579
G1 X55.667 Y178.515 E45.10723
G1 X55.056 Y178.31 E45.12866
G1 X54.475 Y178.032 E45.15009
G1 X53.932 Y177.683 E45.17155
G1 X53.437 Y177.27 E45.193
G1 X52.997 Y176.799 E45.21443
G1 X52.618 Y176.277 E45.23589
G1 X52.307 Y175.713 E45.25731
G1 X52.069 Y175.114 E45.27875
G1 X51.906 Y174.49 E45.3002
G1 X51.811 Y173.631 E45.32894
G1 X51.802 Y173.298 E45.34002
G1 X51.8 Y173.158 E45.34468
G1 X51.8 Y37.104 E49.86986
G1 X51.809 Y36.439 E49.89198
G1 X51.858 Y35.796 E49.91342
G1 X51.986 Y35.164 E49.93487
G1 X52.191 Y34.553 E49.95631
G1 X52.47 Y33.972 E49.97774
G1 X52.819 Y33.429 E49.99921
G1 F3900 E43.99921
;MESH:grid_clock v20_back.stl
G0 F3600 X56.335 Y37.114
G0 X57.614 Y37.114
G0 X146.659 Y40.595
G0 X147.452 Y41.369
G0 X148.528 Y41.641
G0 X149.595 Y41.341
G0 X150.631 Y40.066
G0 X150.535 Y40.041
;TYPE:WALL-INNER
G1 F3900 E49.99921
G1 F1950 X150.602 Y39.473 E50.01823
G1 X150.523 Y38.929 E50.03652
G1 X150.307 Y38.425 E50.05476
G1 X149.968 Y37.994 E50.07299
G1 X149.529 Y37.665 E50.09124
G1 X149.108 Y37.497 E50.10632
G1 X149.017 Y37.461 E50.10957
G1 X148.472 Y37.398 E50.12782
G1 X147.929 Y37.477 E50.14607
G1 X147.881 Y37.497 E50.1478
G1 X147.425 Y37.693 E50.16431
G1 X146.994 Y38.032 E50.18255
G1 X146.665 Y38.471 E50.20079
G1 X146.461 Y38.983 E50.21912
G1 X146.398 Y39.528 E50.23737
G1 X146.477 Y40.071 E50.25562
G1 X146.693 Y40.575 E50.27386
G1 X147.032 Y41.006 E50.2921
G1 X147.471 Y41.335 E50.31034
G1 X147.983 Y41.539 E50.32867
G1 X148.528 Y41.602 E50.34692
G1 X149.071 Y41.523 E50.36517
G1 X149.575 Y41.307 E50.38341
G1 X150.006 Y40.968 E50.40165
G1 X150.333 Y40.531 E50.4198
G1 X150.535 Y40.041 E50.43743
G0 F3600 X150.144 Y39.939
;TYPE:WALL-OUTER
G1 F1950 X150.199 Y39.478 E50.45287
G1 X150.135 Y39.039 E50.46763
G1 X149.96 Y38.631 E50.48239
G1 X149.686 Y38.283 E50.49712
G1 X149.331 Y38.017 E50.51188
G1 X148.918 Y37.852 E50.52667
G1 X148.478 Y37.801 E50.5414
G1 X148.039 Y37.865 E50.55616
G1 X147.631 Y38.04 E50.57092
G1 X147.283 Y38.314 E50.58566
G1 X147.017 Y38.669 E50.60041
G1 X146.852 Y39.082 E50.6152
G1 X146.801 Y39.522 E50.62993
G1 X146.865 Y39.961 E50.64469
G1 X147.04 Y40.369 E50.65946
G1 X147.314 Y40.717 E50.67419
G1 X147.669 Y40.983 E50.68894
G1 X148.082 Y41.148 E50.70373
G1 X148.522 Y41.199 E50.71847
G1 X148.961 Y41.135 E50.73322
G1 X149.369 Y40.96 E50.74799
G1 X149.717 Y40.686 E50.76272
G1 X149.982 Y40.332 E50.77743
G1 X150.144 Y39.939 E50.79156
G0 F3600 X150.167 Y39.741
G0 X150.604 Y39.794
G0 X150.663 Y39.801
G0 X150.367 Y40.55
G0 X149.595 Y41.341
G0 X148.528 Y41.641
G0 X110.128 Y39.372
G0 X100.898 Y39.372
G0 X63.631 Y40.066
G0 X63.535 Y40.041
;TYPE:WALL-INNER
G1 F1950 X63.602 Y39.473 E50.81059
G1 X63.523 Y38.929 E50.82887
G1 X63.307 Y38.425 E50.84711
G1 X62.968 Y37.994 E50.86535
G1 X62.529 Y37.665 E50.88359
G1 X62.108 Y37.497 E50.89867
G1 X62.017 Y37.461 E50.90192
G1 X61.472 Y37.398 E50.92017
G1 X60.929 Y37.477 E50.93842
G1 X60.881 Y37.497 E50.94015
G1 X60.425 Y37.693 E50.95666
G1 X59.994 Y38.032 E50.9749
G1 X59.665 Y38.471 E50.99314
G1 X59.461 Y38.983 E51.01148
G1 X59.398 Y39.528 E51.02972
G1 X59.477 Y40.071 E51.04797
G1 X59.693 Y40.575 E51.06621
G1 X60.032 Y41.006 E51.08445
G1 X60.471 Y41.335 E51.1027
G1 X60.983 Y41.539 E51.12103
G1 X61.528 Y41.602 E51.13927
G1 X62.071 Y41.523 E51.15752
G1 X62.575 Y41.307 E51.17576
G1 X63.006 Y40.968 E51.194
G1 X63.333 Y40.531 E51.21215
G1 X63.535 Y40.041 E51.22978
G0 F3600 X63.144 Y39.939
;TYPE:WALL-OUTER
G1 F1950 X63.199 Y39.478 E51.24522
G1 X63.135 Y39.039 E51.25998
G1 X62.96 Y38.631 E51.27474
G1 X62.686 Y38.283 E51.28948
G1 X62.331 Y38.017 E51.30423
G1 X61.918 Y37.852 E51.31902
G1 X61.478 Y37.801 E51.33375
G1 X61.039 Y37.865 E51.34851
G1 X60.631 Y38.04 E51.36328
G1 X60.283 Y38.314 E51.37801
G1 X60.017 Y38.669 E51.39276
G1 X59.852 Y39.082 E51.40755
G1 X59.801 Y39.522 E51.42229
G1 X59.865 Y39.961 E51.43704
G1 X60.04 Y40.369 E51.45181
G1 X60.314 Y40.717 E51.46654
G1 X60.669 Y40.983 E51.48129
G1 X61.082 Y41.148 E51.49609
G1 X61.522 Y41.199 E51.51082
G1 X61.961 Y41.135 E51.52557
G1 X62.369 Y40.96 E51.54034
G1 X62.717 Y40.686 E51.55507
G1 X62.982 Y40.332 E51.56978
G1 X63.144 Y39.939 E51.58392
G0 F3600 X63.167 Y39.741
G0 X63.604 Y39.794
G0 X63.663 Y39.801
G0 X99.5 Y52
;TYPE:WALL-INNER
G1 F1950 X110.5 Y52 E51.94978
G1 X110.5 Y39 E52.38216
G1 X99.5 Y39 E52.74802
G1 X99.5 Y52 E53.1804
G0 F3600 X99.9 Y51.6
G1 F1950 X110.1 Y51.6 E53.51966
G1 X110.1 Y39.4 E53.92543
G1 X99.9 Y39.4 E54.26468
G1 X99.9 Y51.6 E54.67046
G0 F3600 X100.3 Y51.2
;TYPE:WALL-OUTER
G1 F1950 X109.7 Y51.2 E54.9831
G1 X109.7 Y39.8 E55.36227
G1 X100.3 Y39.8 E55.67491
G1 X100.3 Y51.2 E56.05408
G0 F3600 X100.5 Y51.2
G0 X100.5 Y51.64
G0 X100.5 Y51.7
G0 X150.061 Y167.919
G0 X150.426 Y169.143
;TYPE:WALL-INNER
G1 F1950 X150.498 Y168.52 E56.07494
G1 X150.505 Y168.468 E56.07668
G1 X150.411 Y167.82 E56.09846
G1 X150.154 Y167.219 E56.1202
G1 X149.75 Y166.705 E56.14195
G1 X149.226 Y166.313 E56.16371
G1 X148.616 Y166.07 E56.18555
G1 X147.966 Y165.995 E56.20731
G1 X147.32 Y166.089 E56.22903
G1 X146.719 Y166.346 E56.25077
G1 X146.205 Y166.75 E56.27251
G1 X145.813 Y167.274 E56.29428
G1 X145.57 Y167.884 E56.31612
G1 X145.495 Y168.534 E56.33788
G1 X145.589 Y169.18 E56.35959
G1 X145.846 Y169.781 E56.38133
G1 X146.25 Y170.295 E56.40307
G1 X146.774 Y170.687 E56.42484
G1 X147.384 Y170.93 E56.44668
G1 X148.034 Y171.005 E56.46844
G1 X148.68 Y170.911 E56.49015
G1 X149.281 Y170.654 E56.51189
G1 X149.795 Y170.25 E56.53364
G1 X150.184 Y169.73 E56.55524
G1 X150.426 Y169.143 E56.57636
G0 F3600 X150.035 Y169.041
G1 F1950 X150.102 Y168.473 E56.59538
G1 X150.023 Y167.929 E56.61366
G1 X149.807 Y167.425 E56.6319
G1 X149.468 Y166.994 E56.65014
G1 X149.029 Y166.665 E56.66838
G1 X148.517 Y166.461 E56.68672
G1 X147.972 Y166.398 E56.70496
G1 X147.429 Y166.477 E56.72321
G1 X146.925 Y166.693 E56.74145
G1 X146.494 Y167.032 E56.75969
G1 X146.165 Y167.471 E56.77794
G1 X145.961 Y167.983 E56.79627
G1 X145.898 Y168.528 E56.81451
G1 X145.977 Y169.071 E56.83276
G1 X146.193 Y169.575 E56.851
G1 X146.532 Y170.006 E56.86924
G1 X146.971 Y170.335 E56.88749
G1 X147.483 Y170.539 E56.90582
G1 X148.028 Y170.602 E56.92407
G1 X148.571 Y170.523 E56.94232
G1 X149.075 Y170.307 E56.96055
G1 X149.506 Y169.968 E56.97879
G1 X149.833 Y169.531 E56.99694
G1 X150.035 Y169.041 E57.01457
G0 F3600 X149.644 Y168.939
;TYPE:WALL-OUTER
G1 F1950 X149.699 Y168.478 E57.03001
G1 X149.635 Y168.039 E57.04477
G1 X149.46 Y167.631 E57.05954
G1 X149.186 Y167.283 E57.07427
G1 X148.831 Y167.017 E57.08902
G1 X148.418 Y166.852 E57.10381
G1 X147.978 Y166.801 E57.11855
G1 X147.539 Y166.865 E57.1333
G1 X147.131 Y167.04 E57.14807
G1 X146.783 Y167.314 E57.1628
G1 X146.517 Y167.669 E57.17755
G1 X146.352 Y168.082 E57.19235
G1 X146.301 Y168.522 E57.20708
G1 X146.365 Y168.961 E57.22183
G1 X146.54 Y169.369 E57.2366
G1 X146.814 Y169.717 E57.25133
G1 X147.169 Y169.983 E57.26608
G1 X147.582 Y170.148 E57.28088
G1 X148.022 Y170.199 E57.29561
G1 X148.461 Y170.135 E57.31036
G1 X148.869 Y169.96 E57.32513
G1 X149.217 Y169.686 E57.33986
G1 X149.482 Y169.332 E57.35457
G1 X149.644 Y168.939 E57.36871
G0 F3600 X149.667 Y168.741
G0 X150.104 Y168.794
G0 X150.163 Y168.801
G0 X149.867 Y169.55
G0 X149.095 Y170.341
G0 X148.134 Y170.625
G0 X64.426 Y169.143
;TYPE:WALL-INNER
G1 F1950 X64.498 Y168.52 E57.38957
G1 X64.505 Y168.468 E57.39131
G1 X64.411 Y167.82 E57.41309
G1 X64.154 Y167.219 E57.43483
G1 X63.75 Y166.705 E57.45658
G1 X63.226 Y166.313 E57.47834
G1 X62.616 Y166.07 E57.50018
G1 X61.966 Y165.995 E57.52194
G1 X61.32 Y166.089 E57.54365
G1 X60.719 Y166.346 E57.56539
G1 X60.205 Y166.75 E57.58714
G1 X59.813 Y167.274 E57.6089
G1 X59.57 Y167.884 E57.63074
G1 X59.495 Y168.534 E57.65251
G1 X59.589 Y169.18 E57.67422
G1 X59.846 Y169.781 E57.69596
G1 X60.25 Y170.295 E57.7177
G1 X60.774 Y170.687 E57.73947
G1 X61.384 Y170.93 E57.76131
G1 X62.034 Y171.005 E57.78307
G1 X62.68 Y170.911 E57.80478
G1 X63.281 Y170.654 E57.82652
G1 X63.795 Y170.25 E57.84827
G1 X64.184 Y169.73 E57.86987
G1 X64.426 Y169.143 E57.89098
G0 F3600 X64.035 Y169.041
G1 F1950 X64.102 Y168.473 E57.91001
G1 X64.023 Y167.929 E57.92829
G1 X63.807 Y167.425 E57.94653
G1 X63.468 Y166.994 E57.96477
G1 X63.029 Y166.665 E57.98301
G1 X62.517 Y166.461 E58.00134
G1 X61.972 Y166.398 E58.01959
G1 X61.429 Y166.477 E58.03784
G1 X60.925 Y166.693 E58.05608
G1 X60.494 Y167.032 E58.07432
G1 X60.165 Y167.471 E58.09256
G1 X59.961 Y167.983 E58.1109
G1 X59.898 Y168.528 E58.12914
G1 X59.977 Y169.071 E58.14739
G1 X60.193 Y169.575 E58.16563
G1 X60.532 Y170.006 E58.18387
G1 X60.971 Y170.335 E58.20212
G1 X61.483 Y170.539 E58.22045
G1 X62.028 Y170.602 E58.23869
G1 X62.571 Y170.523 E58.25694
G1 X63.075 Y170.307 E58.27518
G1 X63.506 Y169.968 E58.29342
G1 X63.833 Y169.531 E58.31157
G1 X64.035 Y169.041 E58.3292
G0 F3600 X63.644 Y168.939
;TYPE:WALL-OUTER
G1 F1950 X63.699 Y168.478 E58.34464
G1 X63.635 Y168.039 E58.3594
G1 X63.46 Y167.631 E58.37416
G1 X63.186 Y167.283 E58.3889
G1 X62.831 Y167.017 E58.40365
G1 X62.418 Y166.852 E58.41844
G1 X61.978 Y166.801 E58.43318
G1 X61.539 Y166.865 E58.44793
G1 X61.131 Y167.04 E58.4627
G1 X60.783 Y167.314 E58.47743
G1 X60.517 Y167.669 E58.49218
G1 X60.352 Y168.082 E58.50697
G1 X60.301 Y168.522 E58.52171
G1 X60.365 Y168.961 E58.53646
G1 X60.54 Y169.369 E58.55123
G1 X60.814 Y169.717 E58.56596
G1 X61.169 Y169.983 E58.58071
G1 X61.582 Y170.148 E58.59551
G1 X62.022 Y170.199 E58.61024
G1 X62.461 Y170.135 E58.62499
G1 X62.869 Y169.96 E58.63976
G1 X63.217 Y169.686 E58.65449
G1 X63.482 Y169.332 E58.6692
G1 X63.644 Y168.939 E58.68334
G0 F3600 X63.667 Y168.741
G0 X64.104 Y168.794
G0 X64.163 Y168.801
G0 X63.867 Y169.55
G0 X63.179 Y170.274
G0 X58 Y172.5
;TYPE:WALL-INNER
G1 F1950 X58 Y37.5 E63.17346
G1 X59.557 Y37.5 E63.22524
G1 X59.705 Y37.5 E63.23016
